shared/.icons/Vimix-White/symbolic/actions/edit-clear-symbolic-rtl.svg

<svg width="16" height="16" version="1.1" xmlns="http://www.w3.org/2000/svg">
 <path d="m11 2 5 6-5 6h-11v-12zm-0.9375 2h-8.0625v8h8.0625l3.334-4z" fill="#555555"/>
 <path d="m9 5h-1c-0.28 0-0.53 0.11-0.71 0.29l-1.29 1.3-1.29-1.3c-0.18-0.18-0.43-0.29-0.71-0.29h-1v1c0 0.28 0.11 0.53 0.29 0.71l1.3 1.29-1.3 1.29c-0.18 0.18-0.29 0.43-0.29 0.71v1h1c0.28 0 0.53-0.11 0.71-0.29l1.29-1.3 1.29 1.3c0.18 0.18 0.43 0.29 0.71 0.29h1v-1c0-0.28-0.11-0.53-0.29-0.71l-1.3-1.29 1.3-1.29c0.18-0.18 0.29-0.43 0.29-0.71z" fill="#555555"/>
</svg>

<svg xmlns="http://www.w3.org/2000/svg" width="16" height="16" version="1.1">
 <path style="fill:#555555" d="M 11,2 16,8 11,14 H 0 V 2 Z M 9,5 H 8 C 7.72,5 7.47,5.11 7.29,5.29 L 6,6.59 4.71,5.29 C 4.53,5.11 4.28,5 4,5 H 3 V 6 C 3,6.28 3.11,6.53 3.29,6.71 L 4.59,8 3.29,9.29 C 3.11,9.47 3,9.72 3,10 V 11 H 4 C 4.28,11 4.53,10.89 4.71,10.71 L 6,9.41 7.29,10.71 C 7.47,10.89 7.72,11 8,11 H 9 V 10 C 9,9.72 8.89,9.47 8.71,9.29 L 7.41,8 8.71,6.71 C 8.89,6.53 9,6.28 9,6 Z"/>
</svg>
